X: 1
T: Urner BÃ¶deler-Walzer F,C,Bb-Dur
T:Hanny Christen. Bd.IX Uri, Schwyz, Unterwalden I. S.208 (wz10705) orig. F,Bb
M:3/4
L:1/8
K:F 
AB | "F"c3ff2 | F2A2f2 | "C7"G2e2c2 | B4 CC | CE Gc eg | bg ec de | "F"fa gf ed | c2z2AB | 
c3ff2 | A2c2f2 | "C7"G2e2c2 | c4 CC | CE Gc eg | ag ec eg | "F"fa gf "C7"eg |  "F"f2z2z2 || [K:C] "G7"gb fa eg | 
df Bd GB | "C"ce Gc EG | CE Ac EA | "G7"FG BF GB | FG BF GB | "C"EG ce Gc | e4 fg | "G7"gb fa eg | 
df Bd GB | "C"ce Gc EG | ce Gc EG | "G7"FG BF GB | FG BF GB | "C"CE Gc eg | c'2z2"_> Teil A"z2 || [K:Bb] 
"Bb"df bd fb | "Eb"eg c'e gc' | "Bb"df bd fb | d3b fd | "F7"ef ae fa | e3a fe | "Bb"df bd fb | d'2 z2f2 | 
df bd fb | "Eb"eg c'e gc' | "Bb"df bd fb | d3b fd | "F7"c=B cd ef | ag fe dc | "Bb"Bd fb df | B2z2z2 |] 

